X:3570
T:Crossing the Shannon
T:Funny Reel, The
R:reel
S:Bernadette FitzSimon (1st version)
Z:id:hn-reel-614
M:C|
K:D
Ad~d2 AGFG|Ad~d2 fdcd|Ad~d2 AGFG|AGFG E2FG|
Ad~d2 AGFG|Ad~d2 fdcd|Adfa gefa|gece d2FG:|
|:Ad~d2 fage|fage fdBd|Ad~d2 AGFG|AGFG E2FG|
Ad~d2 fage|fage fdBd|Adfa gefa|gece d2FG:|
"version 2"
|:Ad~d2 AdFd|Ad~d2 fdBd|Ad~d2 AdFd|AGFD EFGB|
Ad~d2 AdFd|Ad~d2 fdBd|Adfa gefa|gefe d2FG:|
|:Ad~d2 fage|fage fdBd|Ad~d2 AdFd|AGFD EFGB|
Ad~d2 fage|fage fdBd|Adfa gefa|gefe d2FG:|


